static/asset/fontsize-small.svg

<?xml version="1.0" encoding="UTF-8"?>
<svg width="27px" height="13px" viewBox="0 0 27 13" version="1.1" xmlns="http://www.w3.org/2000/svg" xmlns:xlink="http://www.w3.org/1999/xlink">
    <!-- Generator: Sketch 41.2 (35397) - http://www.bohemiancoding.com/sketch -->
    <title>S</title>
    <desc>Created with Sketch.</desc>
    <defs></defs>
    <g id="Page-1" stroke="none" stroke-width="1" fill="none" fill-rule="evenodd">
        <g id="FONTSIZE_2" transform="translate(-165.000000, -20.000000)" fill="#7F7F7F">
            <g id="S" transform="translate(165.000000, 20.000000)">
                <path d="M18.4924868,10.0655629 C18.4924868,9.85004343 18.6687408,9.67407227 18.8803042,9.67407227 L18.0181216,9.67407227 C17.3277656,9.67407227 16.7681216,10.2337163 16.7681216,10.9240723 C16.7681216,11.6144282 17.3277656,12.1740723 18.0181216,12.1740723 L18.8803042,12.1740723 C20.0485546,12.1740723 20.9924868,11.2316551 20.9924868,10.0655629 L20.9924868,1.25 C20.9924868,0.559644063 20.4328427,0 19.7424868,0 C19.0521309,0 18.4924868,0.559644063 18.4924868,1.25 L18.4924868,10.0655629 Z M13.0388073,8.42403555 C12.8687725,9.09312409 13.2733354,9.77336799 13.942424,9.94340283 C14.6115125,10.1134377 15.2917564,9.7088747 15.4617913,9.03978616 L16.6529534,4.35255304 C16.8229882,3.6834645 16.4184252,3.0032206 15.7493367,2.83318576 C15.0802482,2.66315093 14.4000043,3.06771389 14.2299694,3.73680243 L13.0388073,8.42403555 Z M23.8287356,9.03950399 C23.9986146,9.70863212 24.6787643,10.1133535 25.3478924,9.9434745 C26.0170205,9.7735955 26.4217419,9.09344585 26.2518629,8.42431772 L25.0618629,3.7370846 C24.8919839,3.06795647 24.2118343,2.66323509 23.5427062,2.83311409 C22.873578,3.00299309 22.4688566,3.68314275 22.6387356,4.35227087 L23.8287356,9.03950399 Z" id="Sf"></path>
                <rect id="Ss" x="0" y="3" width="10" height="10" rx="2"></rect>
            </g>
        </g>
    </g>
</svg>

<svg width="27" height="13" xmlns="http://www.w3.org/2000/svg"><g fill="#7F7F7F" fill-rule="evenodd"><path d="M18.492 10.066c0-.216.177-.392.388-.392h-.862a1.25 1.25 0 1 0 0 2.5h.862a2.108 2.108 0 0 0 2.112-2.108V1.25a1.25 1.25 0 0 0-2.5 0v8.816zM13.04 8.424a1.25 1.25 0 0 0 2.423.616l1.191-4.687a1.25 1.25 0 0 0-2.423-.616L13.04 8.424zm10.79.616a1.25 1.25 0 0 0 2.423-.616l-1.19-4.687a1.25 1.25 0 1 0-2.423.615l1.19 4.688z"/><rect y="3" width="10" height="10" rx="2"/></g></svg>
